X:1
T:A New Ground, ZT 682
T:Henry Purcell
%%score { ( 1 2 4 ) | ( 3 5 ) }
L:1/8
M:4/4
K:G
V:1 treble nm="Harpsichord"
V:2 treble 
V:4 treble 
V:3 bass 
V:5 bass 
V:1
 z/ E G- G/- G/G/ z/ F/-F z2 | z/ E G F E ^D ^C D B,/ | z/ E/- E z/ F3/2 z/ E/- E z3/2 z/ | %3
 Pg>g a/g/f/e/ b2 Pf2 | z2 a>a P^d>d e/d/^c/B/ | Pe>f fe/f/ g4- | g/a/f/g/ Pf>f f3 z/ F/ | %7
 z/ E G F E ^D ^C D B,/ | z/ E/- E z/ F3/2 z/ E/- E z3/2 z/ | Pg>g a/g/f/e/ b2 Pf2 | %10
 z2 a>a P^d>d e/d/^c/B/ | Pe>f Pfe/f/ g4- | g/a/f/g/ Pf>f f3 z/ F/ | z/ E/ E Pe>e PdB c>d | %14
 PBA/G/ Pa>b a/g/f/e/ g/f/e/^d/ | Pec bf/f/ Pf3 b | ba/g/ f/g/f/e/ P^d2 e/d/^c/B/ | %17
 Pe2 f/e/B gf/e/ ^d/^c/B/A/ | GF/E/ Pg>g gf- f^g | a>g f/g/f/e/ b2 P^d^c/B/ | %20
 ef/g/ a/g/a/f/ g/a/b Pgf/e/ | e2 z/ G/- G z/ F A G F/ | z/ E/- E Pe>e PdBcd | %23
 PBA/A/ Pa>b a/g/f/e/ g/f/e/^d/ | Pec bf/f/ Pf3 b | ba/g/ f/g/f/e/ P^d2 e/d/^c/B/ | %26
 Pe2 g/f/B gf/e/ ^d/^c/B/A/ | PGF/E/ g>g gf- f^g | a>g f/g/f/e/ b2 ^d^c/B/ | %29
 ef/g/ a/g/a/f/ ga/b/ Pgf/e/ | e8 |] %31
V:2
 z2 z/ B/- B/ z/ B>A- A/GF/ | x8 | z z/ B,/ z z/ A,/ z/ B,/- B, z2 | x8 | x8 | x8 | x8 | x8 | %8
 z z/ B,/ z z/ A,/ z/ B,/- B, z2 | x8 | x8 | x8 | x8 | x8 | x8 | x8 | x8 | x8 | x8 | x8 | x8 | x8 | %22
 x8 | x8 | x8 | x8 | x8 | x8 | x8 | x8 | x8 |] %31
V:3
 E,,E,G,B, ^D,F,B,=D, | ^C,B,A,=C, B,,G,A,,F, | G,,E,F,,^D, E,G,,A,,B,, | z E,- E,2 ^D,3 =D, | %4
 ^C,3 =C, B,,2 A,,2 | G,,2 F,,2 z G,, A,,B,, | E,,E,G,B, ^D,F,A,=D, | ^C,B,A,=C, B,,G,A,,F, | %8
 G,,E,F,,^D, E,G,,A,,B,, | z E,- E,2 ^D,3 =D, | ^C,3 =C, B,,2 A,,2 | G,,2 F,,2 z G,, A,,B,, | %12
 E,,E,G,B, ^D,F,A,=D, | ^C,3 =C, B,,2 A,,2 | G,,2 F,,2 z G,, A,,B,, | z E,- E,2 ^D,3 =D, | %16
 ^C,3 =C, B,,2 A,,2 | G,,2 F,,2 z G,, A,,B,, | z E,- E,2 ^D,3 =D, | ^C,3 =C, B,,2 A,,2 | %20
 G,,2 F,,2 z G,, A,,B,, | z E,- E,2 ^D,3 =D, | ^C,3 =C, B,,2 A,,2 | G,,2 F,,2 z G,, A,,B,, | %24
 z E,- E,2 ^D,3 =D, | ^C,3 =C, B,,2 A,,2 | G,,2 F,,2 z G,, A,,B,, | z E,- E,2 ^D,3 =D, | %28
 ^C,3 =C, B,,2 A,,2 | G,,2 F,,2 z G,, A,,B,, | E,,8 |] %31
V:4
 x8 | x8 | z4 z/ G/- G b>b | x8 | x8 | x8 | x8 | x8 | z4 z/ G/- G b>b | x8 | x8 | x8 | x8 | x8 | %14
 x8 | x8 | x8 | x8 | x8 | x8 | x8 | x8 | x8 | x8 | x8 | x8 | x8 | x8 | x8 | x8 | x8 |] %31
V:5
 x8 | x8 | x8 | E,,2 G,B, z F, B,2- | B,B, A,2- A,G,- G,F,- | F,E,- E, ^D, E,2 z2 | x8 | x8 | x8 | %9
 E,,2 G,B, z F, B,2- | B,B, A,2- A,G,- G,F,- | F,E,- E, ^D, E,2 z2 | x8 | z B, A,2- A,G,- G,F,- | %14
 F,E,- E,^D, E,2 z2 | E,,2 G,B, z F, B,2- | B,B, A,2- A,G,- G,F,- | F,E,- E, ^D, E,2 z2 | %18
 E,,2 G,B, z F, B,2- | B,B, A,2- A,G,- G,F,- | F,E,- E, ^D, E,2 z2 | E,,2 G,B, z F, B,2- | %22
 B,B, A,2- A,G,- G,F,- | F,E,- E, ^D, E,2 z2 | E,,2 G,B, z F, B,2- | B,B, A,2- A,G,- G,F,- | %26
 F,E,- E, ^D, E,2 z2 | E,,2 G,B, z F, B,2- | B,B, A,2- A,G,- G,F,- | F,E,- E, ^D, E,2 z2 | x8 |] %31

